!!!!SEGMENT: Wil3005-Jayme_bien_mon_amy_II.krn
!!!id: Wil3005
!!!AGN: Chanson
!!!SCT: Thomas (1986)
!!!voices: 4
!!!COM: Adrian Willaert
!!!OTL: J'ayme bien mon amy (II)
**kern	**kern	**kern	**kern
*part4	*part3	*part2	*part1
*staff4	*staff3	*staff2	*staff1
*I"Bassus	*I"Tenor	*I"Altus	*I"Superius
*I'B	*I'T	*I'A	*I'S
*clefF4	*clefGv2	*clefGv2	*clefG2
*k[]	*k[b-]	*k[]	*k[b-]
*C:	*d:	*C:	*d:
*M2/1	*M2/1	*M2/1	*M2/1
*met(C|)	*met(C|)	*met(C|)	*met(C|)
=1	=1	=1	=1
!	!LO:TX:a:t=Canon&colon; tenor/bassus at the fourth	!	!LO:TX:a:t=Canon&colon; superius/altus at the fourth
0r	0r	0r	2r
.	.	.	2b-y
.	.	.	2cc
.	.	.	2a
=2	=2	=2	=2
0r	2r	0r	1b-y
.	2B-y	.	.
.	2c	.	2g
.	2A	.	[2f
=3	=3	=3	=3
0r	1B-y	2r	2f]
.	.	2f	1b-y
.	1G	2g	.
.	.	2e	4a
.	.	.	4g
=4	=4	=4	=4
2r	1F	1f	1a
2F	.	.	.
2G	1r	2d	1g
2E	.	[2c	.
=5	=5	=5	=5
1F	0r	2c]	1f
.	.	1f	.
1D	.	.	2r
.	.	4e	2b-y
.	.	4d	.
=6	=6	=6	=6
1C	1r	1e	2cc
.	.	.	2a
1r	2r	1d	1b-y
.	2B-y	.	.
=7	=7	=7	=7
0r	2c	1c	2g
.	2A	.	1f
.	1B-y	2r	.
.	.	2f	[2b-y
=8	=8	=8	=8
1r	1G	2g	2b-]
.	.	2e	4a
.	.	.	4g
2r	1F	1f	1a
2F	.	.	.
=9	=9	=9	=9
2G	0r	2d	1g
2E	.	1c	.
1F	.	.	2r
.	.	[2f	2c
=10	=10	=10	=10
1D	1F	2f]	2f
.	.	4e	2f
.	.	4d	.
1C	2c	2e	2.g
.	2c	2e	.
.	.	.	4a
=11	=11	=11	=11
0r	2.d	1d	2b-y
.	.	.	2b-y
.	4e	.	.
.	2f	2r	2a
.	2d	2G	[2dd
=12	=12	=12	=12
1C	1e	2c	4dd]
.	.	.	4cc
.	.	2c	1cc
2G	1d	2.d	.
2G	.	.	2bni
.	.	4e	.
=13	=13	=13	=13
2.A	0c	2f	1cc
.	.	2f	.
4B	.	.	.
2c	.	2e	1r
2A	.	[2a	.
=14	=14	=14	=14
1B	1G	4a]	0r
.	.	4g	.
.	.	1g	.
1A	1r	.	.
.	.	2f#i	.
=15	=15	=15	=15
0G	1r	0g	2r
.	.	.	2g
.	2r	.	1b-y
.	2d	.	.
=16	=16	=16	=16
1D	1f	0r	1a
1r	1e	.	2g
.	.	.	2cc
=17	=17	=17	=17
1r	1d	2r	2b-y
.	.	2d	4a
.	.	.	4g
2r	1r	1f	1a
2A	.	.	.
=18	=18	=18	=18
1c	0r	1e	0g
1B	.	2d	.
.	.	2g	.
=19	=19	=19	=19
1A	1r	2f	2r
.	.	4e	2cc
.	.	4d	.
1r	[1g	1e	2b-y
.	.	.	4a
.	.	.	4g
=20	=20	=20	=20
0r	2g]	0d	2b-y
.	1f	.	1a
.	4e	.	(2dd
.	4d	.	.
=21	=21	=21	=21
1r	1e	2r	4dd)
.	.	.	4cc#i
.	.	2g	2cc#i
[1d	1d	2f	1dd
.	.	4e	.
.	.	4d	.
=22	=22	=22	=22
2d]	0r	2f	0r
1c	.	1e	.
4B-i	.	[2a	.
4A	.	.	.
=23	=23	=23	=23
1B-i	0r	4a]	1b-y
.	.	4g	.
.	.	2g	.
1A	.	1a	2cc
.	.	.	2a
=24	=24	=24	=24
0r	1B-y	0r	1b-y
.	2c	.	2g
.	2A	.	[2f
=25	=25	=25	=25
0r	1B-y	1f	2f]
.	.	.	1b-y
.	1G	2g	.
.	.	2e	4a
.	.	.	4g
=26	=26	=26	=26
1F	1F	1f	1a
2G	1r	2d	1g
2E	.	[2c	.
=27	=27	=27	=27
1F	1r	2c]	1cc
.	.	1f	.
1D	2r	.	1r
.	2B-y	4e	.
.	.	4d	.
=28	=28	=28	=28
1C	2c	1e	2r
.	2A	.	2c
1r	1B-y	1d	2d
.	.	.	2f
=29	=29	=29	=29
1r	1G	1g	2f
.	.	.	2e
2r	1F	1r	2.f
2F	.	.	.
.	.	.	4e
=30	=30	=30	=30
2G	2B-y	2r	2d
2E	1c	2G	2c
1F	.	2A	2r
.	2A	2c	2c
=31	=31	=31	=31
1D	4B-y	2c	2d
.	4A	.	.
.	4G	2B	2f
.	4F	.	.
1C	2G	2.c	2f
.	2G	.	2e
.	.	4B	.
=32	=32	=32	=32
00Fl	00Fl	00Al	00fl
==	==	==	==
*-	*-	*-	*-
!!!system-decoration: [*]
!!!RDF**kern: i = editorial accidental
!!!RDF**kern: l = terminal long
!!!ENC: Benjamin Ory
!!!END: 2020/12/18
!!!EED: Benjamin Ory
!!!EEV: 2021/04/30
!!!YEC: Copyright 2021 Benjamin Ory, All Rights Reserved
!!!ONB: Translated from MusicXML on 2021/04/30
